!!!COM: Buxtehude, Dietrich
!!!CDT: ~1637///-1707/05/09/
!!!ODT: ~1694///
!!!OTL: Sonata in G Major, Op. 1, No. 2
!!!OPS: Op. 1
!!!ONM: No. 2
!!!SCA: BuxWV 253
!!!OMD: 4. Allegro
!!!URL: http://www.lysator.liu.se/~tuben/scores
!!!ONB: Johan Tufvessons, ed.
!!!SMA: facsmile of the original edition at Uppsala University
**kern	**dynam	**kern	**dynam	**kern	**dynam
*staff3	*staff3	*staff2	*staff2	*staff1	*staff1
*Icemba	*Icemba	*Iviola	*Iviola	*Ivioln	*Ivioln
*clefF4	*clefF4	*clefC3	*clefC3	*clefG2	*clefG2
*k[f#]	*k[f#]	*k[f#]	*k[f#]	*k[f#]	*k[f#]
*met(C)	*met(C)	*met(C)	*met(C)	*met(C)	*met(C)
*M6/8	*M6/8	*M6/8	*M6/8	*M6/8	*M6/8
*MM132	*MM132	*MM132	*MM132	*MM132	*MM132
=80-	=80-	=80-	=80-	=80-	=80-
2.r	.	2.r	.	16g/LL	f
.	.	.	.	16b/	.
.	.	.	.	16ee/	.
.	.	.	.	16b/	.
.	.	.	.	16g/	.
.	.	.	.	16b/JJ	.
.	.	.	.	16g/LL	.
.	.	.	.	16b/	.
.	.	.	.	16ee/	.
.	.	.	.	16b/	.
.	.	.	.	16g/	.
.	.	.	.	16b/JJ	.
=81	=81	=81	=81	=81	=81
4r	.	4r	.	16g/LL	.
.	.	.	.	16b/	.
.	.	.	.	16ee/	.
.	.	.	.	16b/	.
8r	.	8r	.	16g/	.
.	.	.	.	16b/JJ	.
8r	.	8r	.	16g/LL	.
.	.	.	.	16b/	.
8r	.	8r	.	16ee/	.
.	.	.	.	16b/	.
8E\	f	8g\	f	16g/	.
.	.	.	.	16b/JJ	.
=82	=82	=82	=82	=82	=82
4D#\	.	4f#\	.	8.b/L	.
.	.	.	.	16B/k	.
8Dn\	.	8f#\	.	8b/J	.
4C#/	.	4e\	.	8b/L	.
.	.	.	.	16a/L	.
.	.	.	.	16g#/J	.
8Cn/	.	8e\	.	[8a/J	.
=83	=83	=83	=83	=83	=83
4BB/	.	8.e\L	.	8a/L]	.
.	.	.	.	16b/L	.
.	.	16f#\k	.	16a/	.
8BB/	.	8d#\J	.	16g/	.
.	.	.	.	16f#/JJ	.
4EE/	.	4e\	.	8g/L	.
.	.	.	.	8e/	.
8r	.	8r	.	16b/L	.
.	.	.	.	16a/JJ	.
=84	=84	=84	=84	=84	=84
8E\	p	8e\	p	16g/LL	p
.	.	.	.	16b/	.
8r	.	8r	.	16ee/	.
.	.	.	.	16b/	.
8r	.	8r	.	16g/	.
.	.	.	.	16b/JJ	.
8E\	.	8e\	.	16g/LL	.
.	.	.	.	16b/	.
8r	.	8r	.	16ee/	.
.	.	.	.	16b/	.
8r	.	8r	.	16g/	.
.	.	.	.	16b/JJ	.
=85	=85	=85	=85	=85	=85
8E\	.	8e\	.	16g/LL	.
.	.	.	.	16b/	.
8r	.	8r	.	16ee/	.
.	.	.	.	16b/	.
8r	.	8r	.	16g/	.
.	.	.	.	16b/JJ	.
8E\	.	8e\	.	16g/LL	.
.	.	.	.	16b/	.
8r	.	8r	.	16ee/	.
.	.	.	.	16b/	.
8E\	.	8g\	.	16g/	.
.	.	.	.	16b/JJ	.
=86	=86	=86	=86	=86	=86
4D#\	.	4f#\	.	8.b/L	.
.	.	.	.	16B/k	.
8Dn\	.	8f#\	.	8b/J	.
4C#/	.	4e\	.	8b/L	.
.	.	.	.	16a/L	.
.	.	.	.	16g#/J	.
8Cn/	.	8e\	.	8a/J	.
=87	=87	=87	=87	=87	=87
4BB/	.	8.e\L	.	8a/L	.
.	.	.	.	16b/L	.
.	.	16f#\k	.	16a/	.
8BB/	.	8d#\J	.	16g/	.
.	.	.	.	16f#/JJ	.
8EE/L	.	8e\L	.	8g/L	.
16E/L	f	16g\L	f	8e/	.
16D/	.	16fn\	.	.	.
16C/	.	16e\	.	[8ee/J	f
16BB/JJ	.	16d#\JJ	.	.	.
=88	=88	=88	=88	=88	=88
8.AA/L	.	16c\LL	.	16ee\LL]	.
.	.	16d\	.	16dd\	.
.	.	16e\	.	16cc\	.
16BB/k	.	16d\	.	16b\	.
8C/J	.	16c\	.	16a\	.
.	.	16B\JJ	.	16g\JJ	.
8.D/L	.	16A/LL	.	8f#/L	.
.	.	16G/	.	.	.
.	.	16F#/	.	8d/	.
16C/L	.	16A/	.	.	.
16BB/	.	16B/	.	[8dd/J	.
16AA/JJ	.	16c/JJ	.	.	.
=89	=89	=89	=89	=89	=89
8.GG/L	.	16B/LL	.	16dd/LL]	.
.	.	16c/	.	16cc/	.
.	.	16d/	.	16b/	.
16AA/k	.	16c/	.	16a/	.
8BB/J	.	16B/	.	16g/	.
.	.	16A/JJ	.	16f#/JJ	.
8.C/L	.	16G/LL	.	16e/LL	.
.	.	16E/	.	16g/	.
.	.	16F#/	.	16a/	.
16BB/k	.	16G/	.	16b/J	.
8AA/J	.	16A/	.	[8cc/J	.
.	.	16G/JJ	.	.	.
=90	=90	=90	=90	=90	=90
8D/L	.	8F#/L	.	8cc\L]	.
8BB/	.	8D/	.	16dd\L	.
.	.	.	.	16cc\J	.
8E/J	.	[8G/J	.	8b\J	.
8C/	.	8G/L]	.	16b/LL	.
.	.	.	.	16a/J	.
4D\	.	8.G/	.	8.a/	.
.	.	16F#/Jk	.	16cc/Jk	.
=91	=91	=91	=91	=91	=91
8GG\L	.	4G/	.	8.b\L	.
8G\	.	.	.	.	.
.	.	.	.	16ee\k	.
8F#\J	.	8r	.	8dd\J	.
8.E\L	.	8r	.	8gg\L	.
.	.	8g\L	.	8.cc#\	.
16F#\k	.	.	.	.	.
8G\J	.	[8e\J	.	.	.
.	.	.	.	16b\Jk	.
=92	=92	=92	=92	=92	=92
4F#\	.	8e\L]	.	8a#\L	.
.	.	8d\	.	8f#\	.
8AA#/	.	8c#\J	.	8ff#\J	.
8BB\L	.	8d/L	.	8.dd\L	.
8B\	.	8B/	.	.	.
.	.	.	.	16gg\k	.
8A\J	.	8A/J	.	8ff#\J	.
*	*	*clefF4	*clefF4	*	*
=93	=93	=93	=93	=93	=93
8G\L	.	8G\L	.	8ee\L	.
8F#\	.	8F#\	.	8dd\	.
[8E\J	.	[8E\J	.	8cc#\J	.
8E\]	.	8E/L]	.	16dd\LL	.
.	.	.	.	16ee\JJ	.
4F#\	.	8.F#/	.	4cc#\	.
.	.	16FF#/Jk	.	.	.
=94	=94	=94	=94	=94	=94
8BB\L	.	8BB\L	.	4.b\	.
8B\	.	16B\L	.	.	.
.	.	16c\	.	.	.
8A\J	.	16A\	.	.	.
.	.	16B\JJ	.	.	.
4G\	.	8G\L	.	8r	.
.	.	16G\L	.	16b\LL	.
.	.	16A\	.	16cc\	.
8F#\	.	16F#\	.	16a\	.
.	.	16G\JJ	.	16b\JJ	.
=95	=95	=95	=95	=95	=95
4E\	.	4E\	.	16g/LL	.
.	.	.	.	16b/	.
.	.	.	.	16ee/	.
.	.	.	.	16b/	.
8r	.	8r	.	16g/	.
.	.	.	.	16b/JJ	.
*	*	*clefC3	*clefC3	*	*
8E\	.	8e\	.	16g/LL	.
.	.	.	.	16b/	.
8r	.	8r	.	16ee/	.
.	.	.	.	16b/	.
8r	.	8r	.	16g/	.
.	.	.	.	16b/JJ	.
=96	=96	=96	=96	=96	=96
8E\	.	8e\	.	16g/LL	.
.	.	.	.	16b/	.
8r	.	8r	.	16ee/	.
.	.	.	.	16b/	.
8r	.	8r	.	16g/	.
.	.	.	.	16b/JJ	.
8E\	.	8e\	.	16g/LL	.
.	.	.	.	16b/	.
8r	.	8r	.	16ee/	.
.	.	.	.	16b/	.
8E\	.	8g\	.	16g/	.
.	.	.	.	16b/JJ	.
=97	=97	=97	=97	=97	=97
4D#\	.	4f#\	.	8.b/L	.
.	.	.	.	16B/k	.
8Dn\	.	8f#\	.	8b/J	.
4C#/	.	4e\	.	8b/L	.
.	.	.	.	16a/L	.
.	.	.	.	16g#/J	.
8Cn/	.	8e\	.	8a/J	.
=98	=98	=98	=98	=98	=98
4BB/	.	8.e\L	.	8a/L	.
.	.	.	.	16b/L	.
.	.	16f#\k	.	16a/	.
8BB/	.	8d#\J	.	16g/	.
.	.	.	.	16f#/JJ	.
4EE/	.	4e\	.	8g/L	.
.	.	.	.	8e/	.
8r	.	8r	.	16b/L	.
.	.	.	.	16a/JJ	.
=99	=99	=99	=99	=99	=99
8E\	p	8e\	p	16g/LL	p
.	.	.	.	16b/	.
8r	.	8r	.	16ee/	.
.	.	.	.	16b/	.
8r	.	8r	.	16g/	.
.	.	.	.	16b/JJ	.
8E\	.	8e\	.	16g/LL	.
.	.	.	.	16b/	.
8r	.	8r	.	16ee/	.
.	.	.	.	16b/	.
8r	.	8r	.	16g/	.
.	.	.	.	16b/JJ	.
=100	=100	=100	=100	=100	=100
8E\	.	8e\	.	16g/LL	.
.	.	.	.	16b/	.
8r	.	8r	.	16ee/	.
.	.	.	.	16b/	.
8r	.	8r	.	16g/	.
.	.	.	.	16b/JJ	.
8E\	.	8e\	.	16g/LL	.
.	.	.	.	16b/	.
8r	.	8r	.	16ee/	.
.	.	.	.	16b/	.
8E\	.	8g\	.	16g/	.
.	.	.	.	16b/JJ	.
=101	=101	=101	=101	=101	=101
4D#\	.	4f#\	.	8.b/L	.
.	.	.	.	16B/k	.
8Dn\	.	8f#\	.	8b/J	.
4C#/	.	4e\	.	8b/L	.
.	.	.	.	16a/L	.
.	.	.	.	16g#/J	.
8Cn/	.	8e\	.	8a/J	.
=102	=102	=102	=102	=102	=102
4BB/	.	8.e\L	.	8a/L	.
.	.	.	.	16b/L	.
.	.	16f#\k	.	16a/	.
8BB/	.	8d#\J	.	16g/	.
.	.	.	.	16f#/JJ	.
8EE\L	.	8.e\L	.	8g/L	.
8e\	f	.	.	8e/	.
.	.	16dn\L	.	.	.
8c\J	.	16c\	.	16ee/L	f
.	.	16B\JJ	.	16dd/JJ	.
=103	=103	=103	=103	=103	=103
8.A\L	.	16A/LL	f	16cc/LL	.
.	.	16G/	.	16b/	.
.	.	16A/	.	16a/	.
16B\k	.	16B/	.	16g/	.
8c\J	.	16c/	.	16f#/	.
.	.	16A/JJ	.	16e/JJ	.
8.B\L	.	8.B/L	.	8d#/L	.
.	.	.	.	16b/L	.
16A\k	.	16A/k	.	16cc/J	.
8G\J	.	8G/J	.	8b/J	.
=104	=104	=104	=104	=104	=104
16F#\LL	.	16F#/LL	.	16a/LL	.
16E\JJ	.	16E/J	.	16g/J	.
8B\L	.	8B/	.	8.f#/	.
8BB\J	.	8BB/J	.	.	.
.	.	.	.	16e/Jk	.
4.E;\	.	4.E;/	.	4.e;/	.
==	==	==	==	==	==
*-	*-	*-	*-	*-	*-
!!!ENC: Craig Stuart Sapp
!!!END: 2004/12/15/
